swiss/communes/0151.svg

<?xml version="1.0" encoding="UTF-8" standalone="no"?>
<!-- Created with Inkscape (http://www.inkscape.org/) -->
<svg
   xmlns:svg="http://www.w3.org/2000/svg"
   xmlns="http://www.w3.org/2000/svg"
   version="1.0"
   width="243.87846"
   height="285.66562"
   id="svg2780">
  <defs
     id="defs2782" />
  <g
     transform="translate(-16.540129,-792.82299)"
     id="layer1">
    <path
       d="M 17.540129,793.82299 L 21.937914,978.53549 C 25.079182,1110.473 251.87953,1110.473 255.02081,978.53549 L 259.41859,793.82299 L 17.540129,793.82299 z"
       id="path3282"
       style="fill:#2167c2;fill-opacity:1;fill-rule:evenodd;stroke:none;stroke-width:2;stroke-linecap:butt;stroke-miterlimit:4;stroke-dashoffset:0;stroke-opacity:1" />
    <path
       d="M 120.75,-10.5 L 120.78125,106.3125 L 20.3125,106.3125 L 21.15625,141.71875 L 120.78125,141.71875 L 120.75,272.09375 C 132.46966,273.4951 144.43603,273.49192 156.15625,272.09375 L 156.1875,141.71875 L 255.8125,141.71875 L 256.625,106.3125 L 156.1875,106.3125 L 156.15625,-10.5 L 120.75,-10.5 z"
       transform="translate(0,804.33069)"
       id="rect3561"
       style="opacity:1;color:#000000;fill:#ffffff;fill-opacity:1;fill-rule:evenodd;stroke:#000000;stroke-width:1.00000012px;stroke-linecap:butt;stroke-linejoin:miter;marker:none;marker-start:none;marker-mid:none;marker-end:none;stroke-miterlimit:4;stroke-dasharray:none;stroke-dashoffset:0;stroke-opacity:1;visibility:visible;display:inline;overflow:visible;enable-background:accumulate" />
    <path
       d="M 17.540129,793.82299 L 21.937914,978.53549 C 25.079182,1110.473 251.87953,1110.473 255.02081,978.53549 L 259.41859,793.82299 L 17.540129,793.82299 z"
       id="path4252"
       style="fill:none;fill-opacity:1;fill-rule:evenodd;stroke:#000000;stroke-width:2;stroke-linecap:butt;stroke-miterlimit:4;stroke-dashoffset:0;stroke-opacity:1" />
  </g>
</svg>

<svg xmlns="http://www.w3.org/2000/svg" version="1.0" width="243.878" height="285.666"><path d="m17.54 793.823 4.398 184.712c3.141 131.938 229.942 131.938 233.083 0l4.398-184.712H17.54z" style="fill:#2167c2;fill-opacity:1;fill-rule:evenodd;stroke:none;stroke-width:2;stroke-linecap:butt;stroke-miterlimit:4;stroke-dashoffset:0;stroke-opacity:1" transform="translate(-16.54 -792.823)"/><path d="m120.75-10.5.031 116.813H20.312l.844 35.406h99.625l-.031 130.375a149.789 149.789 0 0 0 35.406 0l.031-130.375h99.625l.813-35.406H156.187l-.03-116.813H120.75z" transform="translate(-16.54 11.508)" style="opacity:1;color:#000;fill:#fff;fill-opacity:1;fill-rule:evenodd;stroke:#000;stroke-width:1.00000012px;stroke-linecap:butt;stroke-linejoin:miter;marker:none;marker-start:none;marker-mid:none;marker-end:none;stroke-miterlimit:4;stroke-dasharray:none;stroke-dashoffset:0;stroke-opacity:1;visibility:visible;display:inline;overflow:visible;enable-background:accumulate"/><path d="m17.54 793.823 4.398 184.712c3.141 131.938 229.942 131.938 233.083 0l4.398-184.712H17.54z" style="fill:none;fill-opacity:1;fill-rule:evenodd;stroke:#000;stroke-width:2;stroke-linecap:butt;stroke-miterlimit:4;stroke-dashoffset:0;stroke-opacity:1" transform="translate(-16.54 -792.823)"/></svg>
